!!!!SEGMENT: pl-cz--i-24--002_gostowski--walec.krn
!!!cenid: 18xx:832
!!!COM: Gostowski
!!!COM-rismID: pe30096425
!!!CDT: ~1800-~1899
!!!CNT:
!!!OTL: Walec
!!!PDT:
!!!AGN: Secular; Waltz
!!!SMS-siglum: PL-CZ
!!!SMS-shelfmark: I-24
!!!SMS-variant:
!!!SMS-altvar:
!!!SMS-shelfwork: 002 W
!!!NIFC-rismSourceID: 300000363
!!!NIFC-rismChildID: 300000365
!!!NIFC-islandoraID: pl-cz:31488
!!!URL-pdf-islandora: https://repozytorium.nifc.pl/islandora/object/pl-cz%3A31488/datastream/PDF/view
!!!URL-scan: https://polish.musicsources.pl/pl/lokalizacje/galeria/rekopisy/6720/1 @EN{Scan on Polish Music Sources Website} @PL{Skany w portalu Dziedzictwo Muzyki Polskiej w otwartym dostępie}
!!!IIIF:
!!!ONB-nifc:
!!!AIN: 2 clars 2 cor 1 timpa 1 tromp 1 viole 2 violn
!!!key: D
**kern	**kern	**kern	**kern	**kern	**kern	**kern	**kern	**kern
*part9	*part8	*part7	*part6	*part5	*part4	*part3	*part2	*part1
*group4	*group4	*group4	*group3	*group2	*group2	*group1	*group1	*group1
*staff9	*staff8	*staff7	*staff6	*staff5	*staff4	*staff3	*staff2	*staff1
*I"Baſso Violone	*I"Violino IIdo	*I"Violino Imo	*I"Tympano in A. E.	*I"Trombka. in A.	*I"Corno 1mo et 2do in A.o	*I"Clarinetto 2do in C.	*I"Clarinetto Imo in C. Mutaſ:	*I"Flauto.
*I'b vlne	*I'vl 2	*I'vl 1	*I'timp	*I'tr in D	*I'cor 1 et 2 in D	*I'cl 2 in A	*I'cl 1 in B♭	*I'fl
*Iviole	*Ivioln	*Ivioln	*Itimpa	*Itromp	*Icor	*Icor	*Iclars	*Iclars
*ICstr	*ICstr	*ICstr	*ICidio	*ICbras	*ICbras	*ICbras	*ICww	*ICww
*clefF4	*clefG2	*clefG2	*clefF4	*clefG2	*clefG2	*clefG2	*clefG2	*clefG2
*	*	*	*	*ITrd-1c-2	*ITrd-1c-2	*ITrd2c3	*ITrd2c3	*
*k[f#c#]	*k[f#c#]	*k[f#c#]	*k[]	*k[f#c#]	*k[f#c#]	*k[f#c#]	*k[f#c#]	*k[f#c#]
*D:	*D:	*D:	*D:	*D:	*D:	*D:	*D:	*D:
*M3/4	*M3/4	*M3/4	*M3/4	*M3/4	*M3/4	*M3/4	*M3/4	*M3/4
*>[A,A,B,B,A]	*>[A,A,B,B,A]	*>[A,A,B,B,A]	*>[A,A,B,B,A]	*>[A,A,B,B,A]	*>[A,A,B,B,A]	*>[A,A,B,B,A]	*>[A,A,B,B,A]	*>[A,A,B,B,A]
*>A	*>A	*>A	*>A	*>A	*>A	*>A	*>A	*>A
!	!	!	!	!LO:TX:t=in D.	!LO:TX:t=in D.	!LO:TX:t=in A. Mutaſ:	!LO:TX:t=in A. Mutſ	!
4r	4r	8dd\L	4r	4r	4r	(8f#/L	8dd\L	8ddd\L
.	.	8ee\J	.	.	.	8g/J)	8ee\J	8eee\J
!!LO:TX:a:t=[segno]:problem:znak segno na kresce taktowej
=1||	=1||	=1||	=1||	=1||	=1||	=1||	=1||	=1||
*	*	*	*	*	*^	*	*	*
!	!	!	!LO:TX:a:t=4.	!	!	!	!	!	!
!	!	!	!LO:N:vis=00	!	!	!	!	!	!
4DD/	8d/L	4.ff#ss\	0.r	4d/	4dd/	4f#\	4.a\	4.ff#\	4.fff#\
.	8a/	.	.	.	.	.	.	.	.
4D\	8f#/	.	.	4d/	4dd/	4f#\	.	.	.
.	8a/	8gg\L	.	.	.	.	8b\L	8gg\L	8ggg\L
4AA/	8g/	8ee\	.	4a/	4ee/	4a\	8g\	8ee\	8eee\
.	8a/J	8ff#\J	.	.	.	.	8a\J	8ff#\J	8fff#\J
=2	=2	=2	=2	=2	=2	=2	=2	=2	=2
4DD/	4d/	4.ddss\	.	4dd\	4ff#/	4dd\	4.f#/	4.dd\	4.ddd\
4D\	4a 4f#/	.	.	4d/	4ff#/	4dd\	.	.	.
.	.	8qee/	.	.	.	.	.	8qee/	.
.	.	8dd\L	.	.	.	.	8f#/L	8dd\L	8ddd\L
4D\	4a 4f#/	8cc#\	.	4dd\	4ff#/	4dd\	8e/	8cc#\	8ccc#\
.	.	8dd\J	.	.	.	.	8f#/J	8dd\J	8ddd\J
=3	=3	=3	=3	=3	=3	=3	=3	=3	=3
4AA/	8A/L	4.eeM\	.	4a/	4ee/	4a\	4.g/	4.ee\	4.eee\
.	8a/	.	.	.	.	.	.	.	.
4A\	8g/	.	.	4a/	4ee/	4a\	.	.	.
.	.	8qff#/	.	.	.	.	.	8qff#/	.
.	8a/	8ee\L	.	.	.	.	8g/L	8ee\L	8eee\L
4AA/	8g/	8dd\	.	4a/	4ee/	4a\	8f#/	8dd\	8ddd\
.	8a/J	8ee\J	.	.	.	.	8g/J	8ee\J	8eee\J
!	!	!	!	!	!	!	!	!LO:LB:g=original	!
=4	=4	=4	=4	=4	=4	=4	=4	=4	=4
4D\	4d/	(4ff#\	.	4f#/	4dd/	4f#\	4a/	(4ff#\	(4fff#\
4DD/	4a 4f#/	8dd\)	.	4d/	4dd/	4f#\	8f#/	8dd\)	8ddd\)
.	.	8dd|\L	.	.	.	.	8f#|/L	8dd|\L	8ddd|\L
4r	4a 4f#/	(8dd\	.	4r	4r	4r	(8f#/	(8dd\	(8ddd\
.	.	8ee\J)	.	.	.	.	8g/J)	8ee\J)	8eee\J)
!	!	!	!	!	!	!	!LO:LB:g=original	!	!
=5	=5	=5	=5	=5	=5	=5	=5	=5	=5
4DD/	8d/L	4.ff#m\	4D\	4d/	4dd/	4f#\	4.a\	4.ff#\	4.fff#\
.	8a/	.	.	.	.	.	.	.	.
4D\	8f#/	.	4D\	4d/	4dd/	4f#\	.	.	.
.	8a/	8gg\L	.	.	.	.	8b\L	8gg\L	8ggg\L
4AA/	8g/	8ee\	4AA/	4a/	4ee/	4a\	8g\	8ee\	8eee\
.	8a/J	8ff#\J	.	.	.	.	8a\J	8ff#\J	8fff#\J
=6	=6	=6	=6	=6	=6	=6	=6	=6	=6
4DD/	8d/L	4.dd\	4D\	4dd\	4ff#/	4dd\	4.f#/	4.dd\	4.ddd\
.	8a/	.	.	.	.	.	.	.	.
4D\	8f#/	.	4D\	4d/	4ff#/	4dd\	.	.	.
.	.	8qee/	.	.	.	.	.	8qee/	.
.	8a/	8dd\L	.	.	.	.	8f#/L	8dd\L	8ddd\L
4D\	8f#/	8cc#\	4D\	4dd\	4ff#/	4dd\	8e/	8cc#\	8ccc#\
.	8a/J	8dd\J	.	.	.	.	8f#/J	8dd\J	8ddd\J
!	!LO:LB:g=original	!LO:LB:g=original	!	!	!	!	!	!	!
=7	=7	=7	=7	=7	=7	=7	=7	=7	=7
4AA/	4A/	4.ee\	4AA/	4a/	4ee/	4a\	4.g\	4.ee\	4.eee\
4A\	4a 4g/	.	4AA/	4A/	4ee/	4a\	.	.	.
.	.	8aa\L	.	.	.	.	8cc#\L	8aa\L	8aaa\L
4A\	4a 4g/	8aa\	4AA/	4a/	4ee/	4a\	8cc#\	8aa\	8aaa\
.	.	8aa\J	.	.	.	.	8cc#\J	8aa\J	8aaa\J
!	!	!	!	!	!LO:LB:g=original	!	!	!	!LO:LB:g=original
=	=	=	=	=	=	=	=	=	=
*	*	*2\right	*	*	*	*	*	*2\right	*2\right
4D\	2a 2f#/	2dd\	4D\	4d/	4dd/	4f#\	2f#/	2dd\	2ddd\
4DD/	.	.	4D\	4d/	4dd/	4f#\	.	.	.
!	!	!	!LO:LB:g=original	!LO:LB:g=original	!	!	!	!	!
=8:|!|:	=8:|!|:	=8:|!|:	=8:|!|:	=8:|!|:	=8:|!|:	=8:|!|:	=8:|!|:	=8:|!|:	=8:|!|:
*>B	*>B	*>B	*>B	*>B	*>B	*>B	*>B	*>B	*>B
4r	4r	(8cc#\L	4r	4r	4r	4ryy	8a\L	8cc#\L	(8ccc#\L
.	.	8dd\J)	.	.	.	.	8b\J	8dd\J	8ddd\J)
!LO:LB:g=original	!	!	!	!	!	!	!	!	!
=9	=9	=9	=9	=9	=9	=9	=9	=9	=9
!	!	!	!LO:TX:a:t=4.	!	!	!	!	!	!
!	!	!	!LO:N:vis=00	!	!	!	!	!	!
4AA/	4A/	4ee\	0.r	4r	4r	4ryy	4cc#\	4ee\	4eee\
.	.	8qff#/	.	.	.	.	.	8qff#/	.
4r	4e 4c#/	8ee\L	.	4a/	4ee/	4a\	8cc#\L	8ee\L	8eee\L
.	.	8dd#X\	.	.	.	.	8b#X\	8dd#X\	8ddd#X\
.	.	8qff#/	.	.	.	.	.	8qff#/	.
4r	4e 4c#/	8ee\	.	4a/	4ee/	4a\	8cc#\	8ee\	8eee\
.	.	8dd#X\J	.	.	.	.	8b#X\J	8dd#X\J	8ddd#X\J
!	!	!	!	!	!	!	!	!LO:LB:g=original	!
=10	=10	=10	=10	=10	=10	=10	=10	=10	=10
*	*rep	*	*	*	*	*	*	*	*
4AA/	4A/	(8ee\L	.	4r	4r	4ryy	(8cc#\L	(8ee\L	(8eee\L
.	.	8ccc#\	.	.	.	.	8ee\	8ccc#\	8ccc#\
4r	4e 4c#/	8ccc#\)	.	4a/	4ee/	4a\	8ee\)	8ccc#\)	8ccc#\)
.	.	8bb|\J	.	.	.	.	8dd|\J	8bb|\J	8bb|\J
4r	4e 4c#/	4aa|\	.	4a/	4ee/	4a\	4cc#\	4aa\	4aa\
*	*Xrep	*	*	*	*	*	*	*	*
=11	=11	=11	=11	=11	=11	=11	=11	=11	=11
4E\	4B/	(8gg#X\L	.	4r	4r	4ryy	(8b\L	(8gg#\L	(8gg#X\L
.	.	8bb\	.	.	.	.	8dd\	8bb\	8bb\
4r	4e 4d/	8bb\)	.	4ee\	4ee/	4ee\	8dd\)	8bb\)	8bb\)
.	.	8aa|\J	.	.	.	.	8cc#|\J	8aa|\J	8aa|\J
4r	4e 4d/	4gg#X|\	.	4ee\	4ee/	4ee\	4b\	4gg#X\	4gg#X\
!	!	!	!	!	!	!	!LO:LB:g=original	!	!
=12	=12	=12	=12	=12	=12	=12	=12	=12	=12
4AA/	4A/	(8aa\L	.	4A/	4r	4ryy	(8cc#\L	(8aa\L	8aa\L
.	.	8ccc#\	.	.	.	.	8ee\	8ccc#\	8ccc#\
4r	4e 4c#/	8ccc#\)	.	4r	4ee/	4a\	8ee\)	8ccc#\)	8ccc#\
.	.	8bb|J	.	.	.	.	8dd|\J	8bb|\J	8bb\J
4r	4e 4c#/	4aa\	.	4r	4ee/	4a\	4cc#\	4aa\	4aa\
!	!	!LO:LB:g=original	!	!	!	!	!	!	!
=13	=13	=13	=13	=13	=13	=13	=13	=13	=13
*	*rep	*	*	*	*	*	*	*	*
4AA/	4A/	4ee\	4AATT/	4A/	4r	4ryy	4cc#\	4ee\	4eee\
.	.	8qff#/	.	.	.	.	.	8qff#/	.
4r	4e 4c#/	8ee\L	4AATTT/	4r	4ee/	4a\	8cc#\L	8ee\L	8eee\L
.	.	8dd#X\	.	.	.	.	8b#X\	8dd#X\	8ddd#X\
.	.	8qff#/	.	.	.	.	.	8qff#/	.
4r	4e 4c#/	8ee\	4AATTTT/	4r	4ee/	4a\	8cc#\	8ee\	8eee\
.	.	8dd#X\J	.	.	.	.	8b#X\J	8dd#X\J	8ddd#X\J
*	*Xrep	*	*	*	*	*	*	*	*
=14	=14	=14	=14	=14	=14	=14	=14	=14	=14
*	*rep	*	*rep	*	*	*	*	*	*
4AA/	4A/	(8ee\L	4AATT/	4A/	4r	4ryy	(8cc#\L	(8ee\L	8eee\L
.	.	8ccc#\	.	.	.	.	8ee\	8ccc#\	8ccc#\
4r	4e 4c#/	8ccc#\)	4AATTT/	4r	4ee/	4a\	8ee\)	8ccc#\)	8ccc#\
.	.	8bb|\J	.	.	.	.	8dd|\J	8bb|\J	8bb\J
4r	4e 4c#/	4aa\	4AATTT/	4r	4ee/	4a\	4cc#\	4aa\	4aa\
*	*Xrep	*	*Xrep	*	*	*	*	*	*
!	!	!	!	!	!	!	!	!	!LO:LB:g=original
=15	=15	=15	=15	=15	=15	=15	=15	=15	=15
4E\	4B/	(8gg#X\L	4r	4r	4r	4ryy	(8b\L	(8gg#\L	(8gg#X\L
.	.	8bb\	.	.	.	.	8dd\	8bb\	8bb\
4r	4e 4d/	8bb\)	4AA/	4ee\	4ee/	4ee\	8dd\)	8bb\)	8bb\)
.	.	8aa|\J	.	.	.	.	8cc#|\J	8aa|\J	8aa|\J
4r	4e 4d/	4gg#X\	4AA/	4ee\	4ee/	4ee\	4b\	4gg#X\	4gg#X\
!	!LO:LB:g=original	!	!	!	!LO:LB:g=original	!	!	!LO:LB:g=original	!
=16	=16	=16	=16	=16	=16	=16	=16	=16	=16
2AA/	2e 2c#/	(8aa\L	2AA/	2a/	2ee/	2a\	(8a\L	(8aa\L	(8aa\L
.	.	8gg#X\	.	.	.	.	8g#\	8gg#\	8gg#X\
.	.	8bb\	.	.	.	.	8b\	8bb\	8bb\
.	.	8aa\	.	.	.	.	8a\	8aa\	8aa\
4r	4r	8ggn\	4r	4r	4r	4ryy	8gX\	8ggX\	8ggn\)
.	.	8ee\J)	.	.	.	.	8e\J)	8ee\J)	8ee\J
*	*	*	*	*	*v	*v	*	*	*
!!LO:TX:t=[segno]:problem:znak segno na kresce taktowej
!LO:TX:b:t=dal Segno.	!LO:TX:b:t=dal Segno.	!LO:TX:b:t=Dal Segno	!LO:TX:b:t=dal Segno.	!LO:TX:b:t=dal Segno.	!LO:TX:b:t=dal Segno.	!LO:TX:b:t=dal\nSegno.	!LO:TX:b:t=dal Segno	!LO:TX:b:t=Dal Segno
==	==	==	==	==	==	==	==	==
*-	*-	*-	*-	*-	*-	*-	*-	*-
!!!system-decoration: [(g1)][(g2)][(g3)][(g4)]
!!!RDF**kern: | = vertical stroke
!!!ENC: Katarzyna Serwa
!!!END: 2021-11-03
!!!ENC: Berenika Jozajtis
!!!END: 2020-07-22
!!!YEC: Copyright 2022 Narodowy Instytut Fryderyka Chopina (https://polishscores.org)
!!!YEM: License CC-BY-4.0 (https://creativecommons.org/licenses/by/4.0)
